X:1
T:Blackfriars, 87.87 D
T:Blackfriars, 87.87 D
T:William James Kirkpatrick, 1891
T:Public Domain Courtesy of the Cyber Hymnal™
C:William James Kirkpatrick, 1891
Z:Public Domain
Z:Courtesy of the Cyber Hymnal™
%%score 1 ( 2 3 )
L:1/8
Q:1/4=110
M:4/4
K:F
V:1 treble 
V:2 bass 
V:3 bass 
V:1
 [CF]3 [CG] [FA]2 [CF]2 | [FA]2 [EB]2 [Fc]2 [FA]2 | [DG]3 [^FA] [GB]2 [DG]2 | [CF]2 [CE]2 [CF]4 | %4
 [FA]3 [GB] [Ac]2 [FA]2 | [FB]2 [Fd]2 [Fc]2 [FA]2 | [CF]3 [EG] [FA]2 [FB]2 | [FA]2 [EG]2 [CF]4 | %8
 [Fc]3 [Fd] [Fc]2 [FA]2 | [Ff]2 [Fd]2 [Fc]2 [FA]2 | [EG]2 [Ec]2 [Ge]3 [Fd] | %11
 [Ec]2 [D=B]2 !fermata![Ec]4 | [FA]3 [GB] [Ac]2 [FA]2 | [FB]2 [Fd]2 [Fc]2 [FA]2 | %14
 [CF]3 [EG] [FA]2 [FB]2 | [FA]2 [EG]2 [CF]4 |] %16
V:2
 [F,A,]3 [F,B,] [F,C]2 [F,A,]2 | [F,C]2 [G,C]2 [A,C]2 [F,C]2 | [B,,B,]3 [A,,C] [G,,D]2 [B,,B,]2 | %3
 [C,A,]2 [C,G,]2 [F,A,]4 | [F,C]3 [F,C] [F,C]2 [F,C]2 | [F,D]2 [F,B,]2 [F,A,]2 [F,C]2 | %6
 [F,A,]3 [C,C] [F,C]2 [B,,D]2 | [C,C]2 [C,B,]2 [F,A,]4 | [F,A,]3 [F,B,] [F,A,]2 [F,C]2 | %9
 [F,D]2 [F,B,]2 [F,A,]2 [F,C]2 | [C,C]2 [C,G,]2 [C,C]3 [F,A,] | G,2 G,2 (G,2 !fermata!C2) | %12
 [F,C]3 [F,C] [F,C]2 [F,C]2 | [F,D]2 [F,B,]2 [F,A,]2 [F,C]2 | [F,A,]3 [C,C] [F,C]2 [B,,D]2 | %15
 [C,C]2 [C,B,]2 [F,A,]4 |] %16
V:3
 x8 | x8 | x8 | x8 | x8 | x8 | x8 | x8 | x8 | x8 | x8 | G,2 G,2 C,4 | x8 | x8 | x8 | x8 |] %16

